X: 4221
T: Blueberry Ball, The
R: waltz
M: 3/4
K: Dmajor
|:cB|A2 d3 A|d2 f2 (3efe|d2 c3 d|e3 f g2|a2 f2 a2|g2 e2 d2|c2 d2 B2|(3ABA F2 G2|
A2 d3 A|d2 f3 e|d2 c2 d2|e2 f2 g2|a2 (3fgf ad2|g2 e2 c2|d3 d d2|d4:|
|:(3efg|a2 f3 g|a2 b2 a2|g2 e23 f|g2 (3aba g2|f2 d2 d2|d2 e3 d|c4 B2|A2 F3 G|
A2 d3 c|d2 (3fgf ec|d3 c d2|e2 f2 g2|a2 f3 a|(3gag e2 c2|d6|d4:|

